Origami/16x16/apps/runescape.svg

<svg width="16" height="16" version="1.1" viewBox="0 0 16 16" xmlns="http://www.w3.org/2000/svg">
 <path d="m8 0a8 8 0 0 0 -8 8 8 8 0 0 0 8 8 8 8 0 0 0 8 -8 8 8 0 0 0 -8 -8z" style="fill:#38738f"/>
 <path d="m5 5.1h2v7.534092l-1 0.965908-1-0.965908z" style="fill:#ffffff"/>
 <path d="M 6,5 C 5.5091476,5.00568 4.9587888,4.9923 4.5789064,5.0839904 4.2738628,5.1576184 4,5.4 4,5.8 L 4.4,6 C 4.4,6 4.6085036,5.8341304 4.8,5.8 5.1657256,5.734819 6,6.2 6,6.2 6,6.2 6.8342744,5.7348192 7.2,5.8 7.3914964,5.834132 7.6,6 7.6,6 L 8,5.8 C 8,5.4 7.7261372,5.1576184 7.4210936,5.0839904 7.0412112,4.992298 6.4908524,5.0056808 6,5 Z" style="fill:#ffffff"/>
 <rect transform="rotate(90)" x="2.8" y="-6.5" width="2.4" height="1" style="fill:#ffffff"/>
 <path d="m7 2c0 0.5522845-0.4477155 1-1 1s-1-0.4477155-1-1z" style="fill:#ffffff"/>
 <rect transform="rotate(45)" x="9.19" y="2.12" width="1.414" height="1.414" style="fill:#ffffff"/>
 <path d="M 8.7832031 5 C 8.915482 5.2372814 9 5.507245 9 5.8007812 A 1.0001 1.0001 0 0 1 8.9277344 6.1699219 C 9.4525833 6.3470655 10 6.7105414 10 7.5 C 10 8.5812424 9.1115192 8.6807816 8 9 C 8 9 8.438205 10.222662 8.7988281 10.753906 C 9.4511427 11.714848 10.245713 12.291378 11.310547 12.892578 C 12.576079 13.45579 13.60405 13.832833 15 14 C 14.027772 13.095026 13.193745 12.712373 12.058594 12.015625 C 11.131851 11.409577 10.595993 10.849911 10 9.9003906 C 10.705699 9.6694209 12 9.3618691 12 7.7265625 C 12 5.7621852 10.399609 5 9.6347656 5 L 8.7832031 5 z" style="fill:#ffffff"/>
</svg>

<svg xmlns="http://www.w3.org/2000/svg" width="16" height="16" version="1.1" viewBox="0 0 16 16">
 <path style="fill:#38738f" d="M 8,0 A 8,8 0 0 0 0,8 8,8 0 0 0 8,16 8,8 0 0 0 16,8 8,8 0 0 0 8,0 Z"/>
 <path style="fill:#ffffff" d="m 5,5.1 h 2 v 7.534092 L 6,13.6 5,12.634092 Z"/>
 <path style="fill:#ffffff" d="M 6,5 C 5.5091476,5.00568 4.9587888,4.9923 4.5789064,5.0839904 4.2738628,5.1576184 4,5.4 4,5.8 L 4.4,6 C 4.4,6 4.6085036,5.8341304 4.8,5.8 5.1657256,5.734819 6,6.2 6,6.2 6,6.2 6.8342744,5.7348192 7.2,5.8 7.3914964,5.834132 7.6,6 7.6,6 L 8,5.8 C 8,5.4 7.7261372,5.1576184 7.4210936,5.0839904 7.0412112,4.992298 6.4908524,5.0056808 6,5 Z"/>
 <rect style="fill:#ffffff" width="2.4" height="1" x="2.8" y="-6.5" transform="rotate(90)"/>
 <path style="fill:#ffffff" d="M 7,2 C 7,2.5522845 6.5522845,3 6,3 5.4477155,3 5,2.5522845 5,2 Z"/>
 <rect style="fill:#ffffff" width="1.414" height="1.414" x="9.19" y="2.12" transform="rotate(45)"/>
 <path style="fill:#ffffff" d="M 8.7832031 5 C 8.915482 5.2372814 9 5.507245 9 5.8007812 A 1.0001 1.0001 0 0 1 8.9277344 6.1699219 C 9.4525833 6.3470655 10 6.7105414 10 7.5 C 10 8.5812424 9.1115192 8.6807816 8 9 C 8 9 8.438205 10.222662 8.7988281 10.753906 C 9.4511427 11.714848 10.245713 12.291378 11.310547 12.892578 C 12.576079 13.45579 13.60405 13.832833 15 14 C 14.027772 13.095026 13.193745 12.712373 12.058594 12.015625 C 11.131851 11.409577 10.595993 10.849911 10 9.9003906 C 10.705699 9.6694209 12 9.3618691 12 7.7265625 C 12 5.7621852 10.399609 5 9.6347656 5 L 8.7832031 5 z"/>
</svg>
